Icons/com_bandsintown.svg

<svg viewBox="0 0 48 48"><defs><linearGradient id="linearGradient3764" x1="1" x2="47" gradientUnits="userSpaceOnUse" gradientTransform="translate(-48.000001,0.00221467)"><stop stop-color="#009ea0" stop-opacity="1"/><stop offset="1" stop-color="#00b4b4" stop-opacity="1"/></linearGradient><clipPath id="clipPath-866960085"><g transform="translate(0,-1004.3622)"><rect rx="4" y="1005.36" x="1" height="46" width="46" fill="#1890d0"/></g></clipPath><clipPath id="clipPath-879531145"><g transform="translate(0,-1004.3622)"><rect rx="4" y="1005.36" x="1" height="46" width="46" fill="#1890d0"/></g></clipPath></defs><g><path d="m 1 43 l 0 0.25 c 0 2.216 1.784 4 4 4 l 38 0 c 2.216 0 4 -1.784 4 -4 l 0 -0.25 c 0 2.216 -1.784 4 -4 4 l -38 0 c -2.216 0 -4 -1.784 -4 -4 z m 0 0.5 l 0 0.5 c 0 2.216 1.784 4 4 4 l 38 0 c 2.216 0 4 -1.784 4 -4 l 0 -0.5 c 0 2.216 -1.784 4 -4 4 l -38 0 c -2.216 0 -4 -1.784 -4 -4 z" opacity="0.02"/><path d="m 1 43.25 l 0 0.25 c 0 2.216 1.784 4 4 4 l 38 0 c 2.216 0 4 -1.784 4 -4 l 0 -0.25 c 0 2.216 -1.784 4 -4 4 l -38 0 c -2.216 0 -4 -1.784 -4 -4 z" opacity="0.05"/><path d="m 1 43 l 0 0.25 c 0 2.216 1.784 4 4 4 l 38 0 c 2.216 0 4 -1.784 4 -4 l 0 -0.25 c 0 2.216 -1.784 4 -4 4 l -38 0 c -2.216 0 -4 -1.784 -4 -4 z" opacity="0.1"/></g><g><rect width="46" height="46" x="-47" y="1" rx="4" transform="matrix(0,-1,1,0,0,0)" fill="url(#linearGradient3764)" fill-opacity="1"/></g><g><g clip-path="url(#clipPath-866960085)"><g opacity="0.1"><!-- color: #00b4b4 --><g><path d="m 12 12 l 0 24 l 24 0 l 0 -11 l -18 0 l 0 5 l 13 0 l 0 1 l -14 0 l 0 -19 m -5 0" fill="#000"/><path d="m 18 17 l 0 7 l 5 0 l 0 -7 m -5 0" fill="#000"/><path d="m 24 17 l 0 7 l 5 0 l 0 -7 m -5 0" fill="#000"/><path d="m 30 12 l 0 12 l 6 0 l 0 -12 m -6 0" fill="#000"/></g></g></g></g><g><g clip-path="url(#clipPath-879531145)"><g transform="translate(0,-1)"><!-- color: #00b4b4 --><g><path d="m 12 12 l 0 24 l 24 0 l 0 -11 l -18 0 l 0 5 l 13 0 l 0 1 l -14 0 l 0 -19 m -5 0" fill="#f9f9f9"/><path d="m 18 17 l 0 7 l 5 0 l 0 -7 m -5 0" fill="#f9f9f9"/><path d="m 24 17 l 0 7 l 5 0 l 0 -7 m -5 0" fill="#f9f9f9"/><path d="m 30 12 l 0 12 l 6 0 l 0 -12 m -6 0" fill="#f9f9f9"/></g></g></g></g><g><g transform="translate(0,-1004.3622)"><path d="m 1 1043.36 0 4 c 0 2.216 1.784 4 4 4 l 38 0 c 2.216 0 4 -1.784 4 -4 l 0 -4 c 0 2.216 -1.784 4 -4 4 l -38 0 c -2.216 0 -4 -1.784 -4 -4 z" opacity="0.1"/></g></g></svg>

<svg viewBox="0 0 48 48" xmlns:xlink="http://www.w3.org/1999/xlink">
 <defs>
  <linearGradient id="0">
   <stop stop-opacity="0"/>
   <stop offset="1"/>
  </linearGradient>
  <linearGradient xlink:href="#0" id="1" gradientUnits="userSpaceOnUse" gradientTransform="translate(4e-7,-48)" y1="47" x2="0" y2="1"/>
  <clipPath id="2">
   <g transform="translate(0,-1004.3622)">
    <rect rx="4" y="1005.36" x="1" height="46" width="46" fill="#1890d0"/>
   </g>
  </clipPath>
  <clipPath id="3">
   <g transform="translate(0,-1004.3622)">
    <rect rx="4" y="1005.36" x="1" height="46" width="46" fill="#1890d0"/>
   </g>
  </clipPath>
 </defs>
 <g>
  <g transform="translate(0,-1004.3622)">
   <path d="m 5,1006.3622 c -2.216,0 -4,1.784 -4,4 l 0,37.25 c 0,2.216 1.784,4 4,4 l 38,0 c 2.216,0 4,-1.784 4,-4 l 0,-37.25 c 0,-2.216 -1.784,-4 -4,-4 l -38,0 z m -4,41.5 0,0.5 c 0,2.216 1.784,4 4,4 l 38,0 c 2.216,0 4,-1.784 4,-4 l 0,-0.5 c 0,2.216 -1.784,4 -4,4 l -38,0 c -2.216,0 -4,-1.784 -4,-4 z" opacity="0.02"/>
   <path d="m 1,1047.6122 0,0.25 c 0,2.216 1.784,4 4,4 l 38,0 c 2.216,0 4,-1.784 4,-4 l 0,-0.25 c 0,2.216 -1.784,4 -4,4 l -38,0 c -2.216,0 -4,-1.784 -4,-4 z" opacity="0.05"/>
   <rect width="46" height="46" x="1" y="1005.61" rx="4" opacity="0.1"/>
  </g>
 </g>
 <g>
  <g transform="translate(0,-1004.3622)">
   <rect rx="4" y="1005.36" x="1" height="46" width="46" fill="#00b4b4"/>
  </g>
 </g>
 <g>
  <rect transform="scale(1,-1)" width="46" height="46" x="1" y="-46.998" rx="4" opacity="0.1" fill="url(#1)"/>
 </g>
 <g>
  <g clip-path="url(#2)">
   <g opacity="0.1">
    <g>
     <path d="M 12 12 L 12 36 L 36 36 L 36 25 L 18 25 L 18 30 L 31 30 L 31 31 L 17 31 L 17 12 Z M 12 12 "/>
     <path d="M 18 17 L 18 24 L 23 24 L 23 17 Z M 18 17 "/>
     <path d="M 24 17 L 24 24 L 29 24 L 29 17 Z M 24 17 "/>
     <path d="M 30 12 L 30 24 L 36 24 L 36 12 Z M 30 12 "/>
    </g>
   </g>
  </g>
 </g>
 <g>
  <g clip-path="url(#3)">
   <g transform="translate(0,-1)">
    <g>
     <path d="M 12 12 L 12 36 L 36 36 L 36 25 L 18 25 L 18 30 L 31 30 L 31 31 L 17 31 L 17 12 Z M 12 12 " fill="#f9f9f9"/>
     <path d="M 18 17 L 18 24 L 23 24 L 23 17 Z M 18 17 " fill="#f9f9f9"/>
     <path d="M 24 17 L 24 24 L 29 24 L 29 17 Z M 24 17 " fill="#f9f9f9"/>
     <path d="M 30 12 L 30 24 L 36 24 L 36 12 Z M 30 12 " fill="#f9f9f9"/>
    </g>
   </g>
  </g>
 </g>
 <g>
  <g transform="translate(0,-1004.3622)">
   <path d="m 1,1043.3622 0,4 c 0,2.216 1.784,4 4,4 l 38,0 c 2.216,0 4,-1.784 4,-4 l 0,-4 c 0,2.216 -1.784,4 -4,4 l -38,0 c -2.216,0 -4,-1.784 -4,-4 z" opacity="0.1"/>
  </g>
 </g>
</svg>
